X:155
T:Waltzing Once Again
R:waltz
C:Bruce Osborne - May 2002
Z:bosborne@kos.net
M:3/4
L:1/8
K:Bb
FE|D2 B,2 B,A,|B,2 D2 Bc|d3 d cB|G3 B AG|
F2 F=E FB|d3 g fd|c2 cB cd |1 c4:|2B4
|:BA|G2 GF GA|B4 g2|f2 fg fd|B4 AB|
c2 cB cA|1F4 e2|d2 dc dc|B4:|2F3 F GA|B2 BA Bc|B4||
